X:6
T:Ashover simple chords 21
M:3/4
L:1/8
K:F
[fF,A,C]c cc d/cB/c | [dD,F,A,]A AA B/AG/A | [GG,B,D]B AG AF | [EC,E,G,]F G2<C2 | [fF,A,C]c c2<c2 |
[dD,F,A,]A AA2f | [eC,E,G,]d cG A=B | [c3C,3E,3G,3]c3 | [fF,A,C]c cc d/cB/c |
[dD,F,A,]A AA B/AG/A | [GG,B,D]B AG AF | [EC,E,G,]F G2<C2 | [fF,A,C]c c2<c2 |
[dD,F,A,]A AA2f | [eC,E,G,]d cG A=B | [c3C,3E,3G,3]c3 | [gC,E,G,]c cc d/cB/c |
[aF,A,C]c cc d/cB/c | [dB,DF]c BA GF | [EC,E,G,]F G2<C2 | [fF,A,C]c c2<c2 |
[dD,F,A,]A AA B/AG/A | [GG,B,D]B AG FE | [F3F,3A,3C3]F3 | [gC,E,G,]c cc d/cB/c |
[aF,A,C]c cc d/cB/c | [dB,DF]c BA GF | [EC,E,G,]F G2<C2 | [fF,A,C]c c2<c2 |
[dD,F,A,]A AA B/AG/A | [GG,B,D]B AG FE | [F3F,3A,3C3]F3 |


